src/images/Icons/DarkBlue/Contact.svg

<svg fill="none" height="32" viewBox="0 0 32 32" width="32" xmlns="http://www.w3.org/2000/svg" xmlns:xlink="http://www.w3.org/1999/xlink"><clipPath id="a"><path d="m0 0h32v32h-32z"/></clipPath><g clip-path="url(#a)" fill="#2b3652"><path d="m26.6568 25.271h-7.5924c-.7407 0-1.3432.612-1.3432 1.3645 0 .7539.6025 1.3645 1.3432 1.3645h7.5924c.7407 0 1.3432-.6106 1.3432-1.3645 0-.7525-.6025-1.3645-1.3432-1.3645z" opacity=".4"/><path d="m13.7454 9.20514 7.1944 5.81346c.1736.139.2032.3941.0678.5719l-8.5293 11.1138c-.5361.6865-1.3263 1.0749-2.1729 1.0893l-4.65612.0573c-.24833.0029-.46562-.1691-.52205-.4157l-1.05822-4.6008c-.18343-.8457 0-1.72.53616-2.3936l8.57153-11.16687c.1383-.17916.3937-.21069.5687-.06879z"/><path d="m24.1607 11.5539-1.387 1.7314c-.1396.1763-.3908.205-.5643.0645-1.6861-1.3645-6.0037-4.866-7.2016-5.83635-.1749-.14333-.1989-.39845-.0578-.57618l1.3376-1.66119c1.2134-1.5623 3.3298-1.70563 5.0371-.344l1.9612 1.5623c.8043.63065 1.3404 1.46196 1.5239 2.33627.2116.96175-.0142 1.90625-.6491 2.72325z" opacity=".4"/></g></svg>

<svg width="32" height="32" viewBox="0 0 32 32" fill="none" xmlns="http://www.w3.org/2000/svg">
<g clip-path="url(#clip0_31_1566)">
<path opacity="0.4" d="M26.6568 25.271H19.0644C18.3237 25.271 17.7212 25.883 17.7212 26.6355C17.7212 27.3894 18.3237 28 19.0644 28H26.6568C27.3975 28 28 27.3894 28 26.6355C28 25.883 27.3975 25.271 26.6568 25.271Z" fill="#2B3652"/>
<path d="M13.7454 9.20514L20.9398 15.0186C21.1134 15.1576 21.143 15.4127 21.0076 15.5905L12.4783 26.7043C11.9422 27.3908 11.152 27.7792 10.3054 27.7936L5.64928 27.8509C5.40095 27.8538 5.18366 27.6818 5.12723 27.4352L4.06901 22.8344C3.88558 21.9887 4.06901 21.1144 4.60517 20.4408L13.1767 9.27393C13.315 9.09477 13.5704 9.06324 13.7454 9.20514Z" fill="#2B3652"/>
<path opacity="0.4" d="M24.1607 11.5539L22.7737 13.2853C22.6341 13.4616 22.3829 13.4903 22.2094 13.3498C20.5233 11.9853 16.2057 8.4838 15.0078 7.51345C14.8329 7.37012 14.8089 7.115 14.95 6.93727L16.2876 5.27608C17.501 3.71378 19.6174 3.57045 21.3247 4.93208L23.2859 6.49438C24.0902 7.12503 24.6263 7.95634 24.8098 8.83065C25.0214 9.7924 24.7956 10.7369 24.1607 11.5539Z" fill="#2B3652"/>
</g>
<defs>
<clipPath id="clip0_31_1566">
<rect width="32" height="32" fill="white"/>
</clipPath>
</defs>
</svg>
